X:120
T:{\AA} h\"ar s{\aa} dansar jag med lilla v\"annen min
R:sl-polska
H:efter Skr\"addaren M\"aster Plut (Anders Magnus Andersson, 1812-1888), V\"astervik
H:jfr nr 32
A:Sm{\aa}land
B:Sm{\aa}l\"andsk musiktradition 268
Z:id:hn-sp-120
M:3/4
L:1/16
K:Am
E2 | E3^G G3A A2B2 | dcBc A2B2 ^G2B2 |
w:{\AA} h\"ar s{\aa} dan-sar jag med lil-*la* v\"an-nen min,*
dcBc A2B2 =G2E2 | GFED E4 z2 :||: c2 | cBcd d2e2 e2B2 |
